templates/www/assets/css/images/logo-64x64-dark.svg

<svg xmlns="http://www.w3.org/2000/svg" width="64" height="64" viewBox="0 0 64 64"><g fill="#333" fill-rule="evenodd"><path d="M12 45h40v3h-8l3.5 12.5-6 1.5-3-14h-13l-3 14-6-1.5L20 48h-8v-3zM16 11h22s.5 1.5.5 4-.5 6-.5 6h10.5v23H16V11z"/><path d="M39 11s.5 2.25.5 4.5S39 20 39 20h9l-9-9zM28 10h8l-1.5-7h-5L28 10z"/></g></svg>

<?xml version="1.0" encoding="UTF-8" standalone="no"?>
<svg width="64px" height="64px" viewBox="0 0 64 64" version="1.1" xmlns="http://www.w3.org/2000/svg" xmlns:xlink="http://www.w3.org/1999/xlink" xmlns:sketch="http://www.bohemiancoding.com/sketch/ns">
    <!-- Generator: Sketch 3.5.2 (25235) - http://www.bohemiancoding.com/sketch -->
    <title>64x64</title>
    <desc>Created with Sketch.</desc>
    <defs></defs>
    <g id="Page-1" stroke="none" stroke-width="1" fill="none" fill-rule="evenodd" sketch:type="MSPage">
        <g id="64x64" sketch:type="MSArtboardGroup" fill="#333333">
            <path d="M12,45 L52,45 L52,48 L44,48 L47.5,60.5 L41.5,62 L38.5,48 L25.5,48 L22.5,62 L16.5,60.5 L20,48 L12,48 L12,45 Z" id="Stand" sketch:type="MSShapeGroup"></path>
            <path d="M16,11 L38,11 C38,11 38.5,12.5 38.5,15 C38.5,17.5 38,21 38,21 L48.5,21 L48.5,44 L16,44 L16,11 Z" id="File-body" sketch:type="MSShapeGroup"></path>
            <path d="M39,11 C39,11 39.5,13.25 39.5,15.5 C39.5,17.75 39,20 39,20 L48,20 L39,11 Z" id="File-corner" sketch:type="MSShapeGroup"></path>
            <path d="M28,10 L36,10 L34.5,3 L29.5,3 L28,10 Z" id="Top" sketch:type="MSShapeGroup"></path>
        </g>
    </g>
</svg>
